X: 61
T: Missa Quinti toni / Sanctus
N: Derived from Ock1012d-Missa_Quinti_toni-Sanctus.krn
C: Johannes Ockeghem
%%abc-version 2.0
%%abcx-abcm2ps-target-version 5.9.1 (29 Sep 2008)
%%abc-creator hum2abc beta
%%abcx-conversion-date 2019/02/17 07:26:15
%%abc-edited-by Jesse Rodin
%%abc-edited-by Chris Gage 08-06-2012
%%abcx-initial-encoding-date 2012/08/06/
%%humdrum-veritas 3742840532
%%humdrum-veritas-data 2892005394
%%linebreak <none>
%%barnumbers 0
L: 1/4
M: 4/2
Q: 1/2=120
V: 1 clef=treble
V: 2 clef=treble-8
V: 3 clef=bass
K: Bb
[V:1] F6D2 | 
[V:2] F8 | 
[V:3] F,4D,4 | 
[V:1] D4C2B,2 | 
[V:2] B4A2B2- | 
[V:3] B,,4z2E,2 | 
[V:1] D2E2C4 | 
[V:2] B2c2A4 | 
[V:3] D,2C,2F,4 | 
[V:1] B,2E4D2- | 
[V:2] G4z2G2- | 
[V:3] z2C,4B,,2- | 
[V:1] DB,C2z2B,2 | 
[V:2] G2A2B4 | 
[V:3] B,,A,,F,,2B,,2G,,2 | 
[V:1] CD2=EF2B,2 | 
[V:2] A2G2F2f2- | 
[V:3] A,,2B,,4B,,2 | 
[V:1] F2G2F2z2 | 
[V:2] fe/d/e2d2B2- | 
[V:3] D,2C,2D,4 | 
[V:1] B3AA2G2 | 
[V:2] BAF4=E2- | 
[V:3] E,2F,4C,2- | 
[V:1] c4A2B2- | 
[V:2] E2F4G2- | 
[V:3] C,2F,,2F,2B,,2 | 
[V:1] BGA3FG2 | 
[V:2] G2F2B4 | 
[V:3] C,2D,2E,4 | 
[V:1] F2z2B,2C2 | 
[V:2] A2G4E2 | 
[V:3] F,2C,2z2C,2 | 
[V:1] D2C4F2 | 
[V:2] D2z2A3G/A/ | 
[V:3] B,,2A,,2F,,4 | 
[V:1] G2B2A3F | 
[V:2] B2G2F4 | 
[V:3] z4F,,4 | 
[V:1] G2F3DED- | 
[V:2] =E2F2G2z2 | 
[V:3] C,2D,3B,,C,B,, | 
[V:1] DB,C2D2z2 | 
[V:2] G2A2B2c2 | 
[V:3] G,,2z2G,,2A,,2 | 
[V:1] G,2A,2B,2C2 | 
[V:2] z2F2G2A2- | 
[V:3] B,,C,2A,,G,,2F,,2- | 
[V:1] F,3G,A,B,C2- | 
[V:2] ABc2F4 | 
[V:3] F,,6A,,2- | 
[V:1] CB,D3CF2- | 
[V:2] =E2D2F4 | 
[V:3] A,,G,,B,,4A,,2 | 
[V:1] FD=E3F/G/A2- | 
[V:2] A2G2c4 | 
[V:3] F,,2C,4A,,2 | 
[V:1] AFB3cA2 | 
[V:2] d4=e2f2- | 
[V:3] B,,4G,,2F,,2 | 
[V:1] FG2F/G/A2G=E | 
[V:2] f=e2d/=e/fd=ec- | 
[V:3] z2C,2A,,B,,2C, | 
[V:1] D2C3D=E2- | 
[V:2] c=Bc2A3B | 
[V:3] G,,2C,2F,2=E,2 | 
[V:1] EFG3F/G/A2- | 
[V:2] c4B2c2 | 
[V:3] C,3B,,G,,2F,,2- | 
[V:1] AFF4=E2 | 
[V:2] F4G4 | 
[V:3] F,,2F,,2C,4 | 
[V:1] F4z4 | 
[V:2] F8- | 
[V:3] F,,8 | 
[V:1] D4G4 | 
[V:2] F4z4 | 
[V:3] B,,4E,4 | 
[V:1] F2D2=E4 | 
[V:2] z4G3A | 
[V:3] D,2B,,2C,4 | 
[V:1] D4z4 | 
[V:2] B4G2_A2- | 
[V:3] B,,6_A,,2 | 
[V:1] F3EG4 | 
[V:2] A2F2E4 | 
[V:3] C,2D,2E,3F, | 
[V:1] E2F4D2 | 
[V:2] z4B4 | 
[V:3] G,2F,2D,4 | 
[V:1] E2C4F2 | 
[V:2] c4A2B2- | 
[V:3] C,4F,2B,,2 | 
[V:1] D2E2F4 | 
[V:2] B2G2F2B2 | 
[V:3] z2C,2D,4 | 
[V:1] E2D2C4 | 
[V:2] c2B4A2 | 
[V:3] E,2B,,2F,4 | 
[V:1] B,2D2E2F2- | 
[V:2] B4G2F2 | 
[V:3] B,,8- | 
[V:1] FEDCB,2A,G, | 
[V:2] B3cd2=e2 | 
[V:3] B,,8 | 
[V:1] F,2B,2C2D2- | 
[V:2] f3=edcB2 | 
[V:3] B,,4A,,2G,,2 | 
[V:1] D2B,2C2D2 | 
[V:2] d3cA2B2 | 
[V:3] B,,3A,,F,,2B,,2 | 
[V:1] =E2F3E/F/G2- | 
[V:2] A2F2B4 | 
[V:3] C,2D,4B,,2 | 
[V:1] G2F2G2B2- | 
[V:2] A4B4 | 
[V:3] C,2D,2B,,2G,,2 | 
[V:1] B2A2B2c2 | 
[V:2] c4B2A2 | 
[V:3] F,,4G,,2F,,2 | 
[V:1] A2F2G2A2- | 
[V:2] F4=E2F2 | 
[V:3] A,,3B,,G,,2F,,2 | 
[V:1] A2F2=E2G2- | 
[V:2] A2B2c4- | 
[V:3] C,2D,2C,2E,2- | 
[V:1] G2E2D3C/D/ | 
[V:2] c4z2=B2 | 
[V:3] E,2C,2=B,,4 | 
[V:1] E4D2C2- | 
[V:2] c2A2B2G2 | 
[V:3] z2C,2D,2E,2 | 
[V:1] C2F2G2A2- | 
[V:2] F4c4- | 
[V:3] F,3D,E,2F,2 | 
[V:1] AGG2F2B2- | 
[V:2] c2Bcd3c | 
[V:3] C,4z2B,,2- | 
[V:1] BA/F/G2F2D2- | 
[V:2] d2=e2f4 | 
[V:3] B,,2G,,2A,,2B,,2- | 
[V:1] DCF4=E2 | 
[V:2] F4G4 | 
[V:3] B,,A,,F,,2C,4 | 
[V:1] F8 ||  
[V:2] F8 ||  
[V:3] F,,8 ||  
[V:1]  [K:Bb] [K:clef=treble][M:4/2]z8 | 
[V:2]  [K:Bb] [K:clef=treble-8][M:4/2]c4B2c2- | 
[V:3]  [K:Bb] [K:clef=bass][M:4/2]z8 | 
[V:1] z8 | 
[V:2] cBAGF4 | 
[V:3] z4F,4 | 
[V:1] z8 | 
[V:2] z4F3=E | 
[V:3] E,2F,3E,D,C, | 
[V:1] z8 | 
[V:2] F2G4F2 | 
[V:3] B,,6A,,2 | 
[V:1] z8 | 
[V:2] B3cA2F2 | 
[V:3] G,,4F,,2B,,2- | 
[V:1] z8 | 
[V:2] G4F2G2- | 
[V:3] B,,2C,2D,2E,2 | 
[V:1] z8 | 
[V:2] G2A2G2B2 | 
[V:3] C,4B,,2D,2 | 
[V:1] z8 | 
[V:2] c2A2G4 | 
[V:3] C,2F,4=E,2 | 
[V:1] z8 | 
[V:2] F8 | 
[V:3] F,8 | 
[V:1] F4G2A2- | 
[V:2] z8 | 
[V:3] D,4E,2D,2 | 
[V:1] A2F2G2A2 | 
[V:2] z8 | 
[V:3] F,2D,2C,4 | 
[V:1] B4c4 | 
[V:2] z8 | 
[V:3] B,,4A,,2F,,2- | 
[V:1] A2B4A2 | 
[V:2] z8 | 
[V:3] F,,2G,,4F,,2 | 
[V:1] G4F4 | 
[V:2] z8 | 
[V:3] B,,2C,2D,4 | 
[V:1] D2E3DCB, | 
[V:2] z8 | 
[V:3] z2G,2F,2D,2 | 
[V:1] C3B,D4 | 
[V:2] z8 | 
[V:3] E,2F,2B,,4 | 
[V:1] z2C2D2=E2 | 
[V:2] z8 | 
[V:3] A,,4B,,2G,,2 | 
[V:1] F3=E/F/G4 | 
[V:2] z8 | 
[V:3] F,,2B,,4C,2 | 
[V:1] F2D2E2D2- | 
[V:2] z8 | 
[V:3] D,4G,2F,2 | 
[V:1] D2G2F2B2- | 
[V:2] z8 | 
[V:3] D,2E,2D,4 | 
[V:1] B2A2F2G2 | 
[V:2] z8 | 
[V:3] G,,2F,,2B,,4 | 
[V:1] A3FF2C2 | 
[V:2] z8 | 
[V:3] A,,2F,,3G,,A,,2 | 
[V:1] F2A2G2c2- | 
[V:2] z8 | 
[V:3] B,,2A,,2C,4 | 
[V:1] cAB2A2G2- | 
[V:2] z8 | 
[V:3] F,2G,2F,2C,2- | 
[V:1] G2F2G3B | 
[V:2] z8 | 
[V:3] C,2D,2C,4 | 
[V:1] A4G2G2- | 
[V:2] z2F2G2B2 | 
[V:3] F,,4z2G,,2 | 
[V:1] G2F2=E4 | 
[V:2] A4G2c2- | 
[V:3] A,,3B,,C,4 | 
[V:1] D4z2F2 | 
[V:2] c2B2A4 | 
[V:3] z2G,2F,2D,2 | 
[V:1] G2=E2D4 | 
[V:2] G4z2B2 | 
[V:3] E,2C,2B,,4 | 
[V:1] C2=E3FGF/G/ | 
[V:2] c2A2G4 | 
[V:3] z2C,3D,E,D,/E,/ | 
[V:1] A3FG2=E2 | 
[V:2] F2A3BcB/c/ | 
[V:3] F,3D,E,2C,2 | 
[V:1] D2G2C2F2 | 
[V:2] d3Bc2A2 | 
[V:3] B,,4F,4 | 
[V:1] G2F4=E2 | 
[V:2] G2c2B2c2- | 
[V:3] E,2F,2D,2C,2 | 
[V:1] D4C2c2- | 
[V:2] c2=B2c3B | 
[V:3] G,2G,,2A,,3B,, | 
[V:1] cBc3AB2 | 
[V:2] G2A4G2 | 
[V:3] C,2F,,4G,,2 | 
[V:1] A2F2=E4 | 
[V:2] c2d2c4 | 
[V:3] A,,2B,,2C,4 | 
[V:1] =E8 ||  
[V:2] c8 ||  
[V:3] C,8 ||  
[V:1]  [K:Bb] [K:clef=treble][M:4/2]A8 | 
[V:2]  [K:Bb] [K:clef=treble-8][M:4/2]c8 | 
[V:3]  [K:Bb] [K:clef=bass][M:4/2]F,,4A,,4 | 
[V:1] =B4c4- | 
[V:2] d4c4 | 
[V:3] G,,4A,,4- | 
[V:1] c4F4 | 
[V:2] A8 | 
[V:3] A,,2F,,2A,,4 | 
[V:1] G4A4- | 
[V:2] B4c4 | 
[V:3] G,,4F,,4- | 
[V:1] A4c4 | 
[V:2] F8 | 
[V:3] F,,4A,,4 | 
[V:1] =B4c4- | 
[V:2] G4A4 | 
[V:3] G,,4F,,4 | 
[V:1] c2A2A4 | 
[V:2] c4d4 | 
[V:3] F,8 | 
[V:1] z4D4 | 
[V:2] B8 | 
[V:3] G,8 | 
[V:1] =E4F4- | 
[V:2] A8- | 
[V:3] C,4D,4- | 
[V:1] F4=E4 | 
[V:2] A8 | 
[V:3] D,4C,4 | 
[V:1] D4G4- | 
[V:2] B8 | 
[V:3] G,8 | 
[V:1] G2FGA4- | 
[V:2] c8- | 
[V:3] C,8 | 
[V:1] A2GF=E4 | 
[V:2] c8 | 
[V:3] z4C,4 | 
[V:1] F4G4- | 
[V:2] A4B4 | 
[V:3] F,4E,4 | 
[V:1] G4C4 | 
[V:2] c6BA | 
[V:3] C,4A,,4 | 
[V:1] G6FG | 
[V:2] G4c4 | 
[V:3] B,,4C,4 | 
[V:1] A4G2=E2- | 
[V:2] F4c4- | 
[V:3] z8 | 
[V:1] E2F2G2C2- | 
[V:2] c2d2=e3f | 
[V:3] z8 | 
[V:1] C2A,2G,2G2 | 
[V:2] g2c2d2=e2 | 
[V:3] z8 | 
[V:1] A2G4c2- | 
[V:2] f2g2c4 | 
[V:3] z8 | 
[V:1] c2=B2A2GF | 
[V:2] d4c4- | 
[V:3] G,,4A,,2B,,2 | 
[V:1] =E4z2B2 | 
[V:2] c4d4 | 
[V:3] C,4B,,4 | 
[V:1] A2F2G2FG | 
[V:2] c2A2B4 | 
[V:3] z2D,2G,,4 | 
[V:1] A3G=E2F2 | 
[V:2] A4z2d2 | 
[V:3] D,4C,2D,2 | 
[V:1] E2C2D2B,2 | 
[V:2] c2A2B2G2 | 
[V:3] E,2F,2D,2E,2 | 
[V:1] A,3B,C2D2 | 
[V:2] F4z2f2 | 
[V:3] F,3G,A,2D,2 | 
[V:1] C2F4=ED | 
[V:2] e2c2d2B2 | 
[V:3] E,2F,2B,,4 | 
[V:1] =E2F2G2A2- | 
[V:2] A4B2c2 | 
[V:3] C,2D,2B,,2A,,2 | 
[V:1] A2GFG2A2 | 
[V:2] d4cBc2 | 
[V:3] z2D,2E,2C,2 | 
[V:1] B2c2A2F2 | 
[V:2] d2=e2f2d2 | 
[V:3] G,,2C,2D,4 | 
[V:1] B2c2A3F | 
[V:2] B2e2f2d2- | 
[V:3] G,,2C,2D,4 | 
[V:1] G2=E2C2c2 | 
[V:2] dBc2A2F2 | 
[V:3] E,2C,2F,4 | 
[V:1] A2F2G2C2- | 
[V:2] f2d2B2c2 | 
[V:3] F,,2B,,2G,,2A,,2- | 
[V:1] CDF4=E2 | 
[V:2] F4G4 | 
[V:3] A,,2F,,2C,4 | 
[V:1] F8 ||  
[V:2] F8 ||  
[V:3] F,,8 ||  
[V:1]  [K:Bb] [K:clef=treble][M:4/2]z8 | 
[V:2]  [K:Bb] [K:clef=treble-8][M:4/2]F8- | 
[V:3]  [K:Bb] [K:clef=bass][M:4/2]F,,8 | 
[V:1] z8 | 
[V:2] F8 | 
[V:3] B,,6A,,2 | 
[V:1] z8 | 
[V:2] A8 | 
[V:3] A,,4F,,4 | 
[V:1] z8 | 
[V:2] G8 | 
[V:3] z2C,4B,,A,, | 
[V:1] z8 | 
[V:2] G8 | 
[V:3] G,,2C,4B,,2 | 
[V:1] z8 | 
[V:2] A4B4 | 
[V:3] C,4D,4 | 
[V:1] z8 | 
[V:2] c6B2 | 
[V:3] C,2F,4D,2 | 
[V:1] z8 | 
[V:2] c4d4 | 
[V:3] E,2F,4G,2 | 
[V:1] z8 | 
[V:2] e4c2d2 | 
[V:3] C,4z2B,,2 | 
[V:1] z8 | 
[V:2] e2f2g3e | 
[V:3] G,,2A,,2G,,2C,2 | 
[V:1] z8 | 
[V:2] f3edcB2 | 
[V:3] A,,2B,,3C,D,2 | 
[V:1] z8 | 
[V:2] c4BAG2 | 
[V:3] C,2E,2F,2G,2- | 
[V:1] z8 | 
[V:2] B2c2d4 | 
[V:3] G,2A,2F,2G,2- | 
[V:1] z8 | 
[V:2] B2c3df2 | 
[V:3] G,2E,2F,3E,/D,/ | 
[V:1] z8 | 
[V:2] =e2d2g2G2 | 
[V:3] C,2B,,4C,2- | 
[V:1] z8 | 
[V:2] A2c4=B2 | 
[V:3] C,2E,2D,4 | 
[V:1] z8 | 
[V:2] c8 | 
[V:3] C,8 | 
[V:1] G8 | 
[V:2] e6c2 | 
[V:3] C,8 | 
[V:1] G4A4 | 
[V:2] d3=ef4 | 
[V:3] B,,3A,,F,,4 | 
[V:1] G2c4=B2 | 
[V:2] e2c2d4 | 
[V:3] C,4G,,4 | 
[V:1] c4B2G2- | 
[V:2] c2A2G4 | 
[V:3] C,4z4 | 
[V:1] GF/G/A3G=E2 | 
[V:2] z4c4- | 
[V:3] C,8 | 
[V:1] F2=E2D4 | 
[V:2] c4z2F2- | 
[V:3] A,,4B,,4 | 
[V:1] C4z2D2 | 
[V:2] F2=E2F2G2 | 
[V:3] C,4B,,3A,, | 
[V:1] C2F4=E2 | 
[V:2] A4B4 | 
[V:3] F,,4G,,4 | 
[V:1] F3GA4- | 
[V:2] A2F4c2- | 
[V:3] F,,8 | 
[V:1] A2GFA2G2- | 
[V:2] cd=e4c2 | 
[V:3] C,8 | 
[V:1] GFD2=E2C2 | 
[V:2] d4c4 | 
[V:3] B,,4C,4 | 
[V:1] B,2C4A,2 | 
[V:2] z8 | 
[V:3] D,2C,2E,2F,2 | 
[V:1] G,2C2D2C2 | 
[V:2] z8 | 
[V:3] G,2C,2B,,2C,2- | 
[V:1] =E2F2G4 | 
[V:2] z8 | 
[V:3] C,2A,,2G,,2C,2- | 
[V:1] =E2D2F3E | 
[V:2] z8 | 
[V:3] C,A,,B,,3A,,F,,2- | 
[V:1] C4G3F | 
[V:2] z8 | 
[V:3] F,,2C,3B,,D,2- | 
[V:1] A4G4 | 
[V:2] z8 | 
[V:3] D,2C,4E,2 | 
[V:1] B3Ac3B | 
[V:2] z8 | 
[V:3] D,2F,3E,C,2 | 
[V:1] G2F2A3G | 
[V:2] z8 | 
[V:3] B,,2D,3C,A,,2 | 
[V:1] =E3FECD2 | 
[V:2] z8 | 
[V:3] G,,2C,4=B,,2 | 
[V:1] C4z2G2 | 
[V:2] z8 | 
[V:3] C,2C,2D,2E,2 | 
[V:1] A2B2c4 | 
[V:2] z8 | 
[V:3] F,2G,2z2C,2 | 
[V:1] z2G2A2B2 | 
[V:2] z8 | 
[V:3] D,2E,2F,2G,2 | 
[V:1] c4A2G2- | 
[V:2] F3GA2B2 | 
[V:3] A,2F,4E,2 | 
[V:1] G2c4F2- | 
[V:2] c4A4 | 
[V:3] C,4F,3G, | 
[V:1] F2B2A2FG- | 
[V:2] z2d3cd2 | 
[V:3] A,2G,2F,2B,2 | 
[V:1] GFF4=E2 | 
[V:2] c2A2B2c2 | 
[V:3] A,2F,2G,4 | 
[V:1] D2C4F2- | 
[V:2] A2F2A2B2 | 
[V:3] F,8 | 
[V:1] F2=E2F4 ||  
[V:2] G4F4 ||  
[V:3] C,4F,,4 ||  



